!! 00000] TT[WS
!!!OTL: Nao huizi
!!!ARE: Asia, China,ÿShanxi Lishan
!! Ethnic Group: Han
!! WI, 242 (1)
!!!SCT: J0288
!!!YEM: Copyright 1995, estate of Helmut Schaffrath.
**kern
*ICvox
*Ivox
*M2/4
*k[f#c#g#]
*A:
{8ee
4ee
8ee
=1
8ee
8b
8ee
8cc#
=2
2b}
=3
{4ee
8ff#
8ee
=4
8cc#
8b
8a
8f#
=5
8a
8e
4a}
=6
{8b
8cc#
4b
=7
8cc#
4cc#
8b
=8
8.a
16f#
8cc#
8cc#
=9
4b
8a
8f#
=10
2e}
==
!!!AGN: Xiaodiao. Fengsu
!!!ONB: ESAC (Essen Associative Code) Database: CHINA
!!!AMT: simple duple
!!!AIN: vox
!!!EED: Helmut Schaffrath
!!!EEV: 1.0
*-
